X: 4
T: Paddy On The Turnpike
R: reel
M: 4/4
L: 1/8
K: Gdor
F|"Gm"DGG^F G2 GA|"G"=BGdG eGdG|"F"AF{G}FE F2 FG|"F"AFcF dFcF|
"Gm"DGG^F G2 GA|"Gm"BAGA Bcde|"Dm"fgfd "F"cAFA|"Gm"BG"D"A^F "Gm"G3:|
|:c|"Gm"dgg^f g2 ga|"Gm"bgdg bg"Dm"af|"F"cffg f2 cf|"F"afcf afgf|
"Gm"dgg^f g2 ga|"Gm"bagf dcde|"Dm"fgfd "F"cAFA|"Gm"BG"D"A^F "Gm"G3:||


Tune 338	Setting 13126

